src/assets/svg/background-station.svg

<svg height="198" preserveAspectRatio="none" viewBox="0 0 513 198" width="513" xmlns="http://www.w3.org/2000/svg"><path d="m0 59.9902802 36.027436-51.77467384c3.1573204-4.5373541 10.1924884-8.21560636 15.7229853-8.21560636h451.2434277c5.526245 0 10.006151 4.47913988 10.006151 9.99515829v177.80225571c0 5.520173-4.473845 9.995158-10.003053 9.995158h-492.9938943c-5.52453345 0-10.0030527-4.467642-10.0030527-9.993602z" fill="#c3c3c3" fill-rule="evenodd"/></svg>

<?xml version="1.0" encoding="UTF-8" standalone="no"?>
<svg preserveAspectRatio="none" width="513px" height="198px" viewBox="0 0 513 198" version="1.1" xmlns="http://www.w3.org/2000/svg" xmlns:xlink="http://www.w3.org/1999/xlink">
    <!-- Generator: Sketch 3.6.1 (26313) - http://www.bohemiancoding.com/sketch -->
    <title>background-station</title>
    <desc>Created with Sketch.</desc>
    <defs></defs>
    <g id="Page-1" stroke="none" stroke-width="1" fill="none" fill-rule="evenodd">
        <g id="background-station" fill="#C3C3C3">
            <path d="M0,59.9902802 L36.027436,8.21560636 C39.1847564,3.67825226 46.2199244,0 51.7504213,0 L502.993849,0 C508.520094,0 513,4.47913988 513,9.99515829 L513,187.797414 C513,193.317587 508.526155,197.792572 502.996947,197.792572 L10.0030527,197.792572 C4.47851925,197.792572 0,193.32493 0,187.79897 L0,59.9902802 Z" id="Rectangle-11"></path>
        </g>
    </g>
</svg>
